X:362
T: ES GRAEBT DER BERGMANN WOHL IN DEM SCHACHT
N: E1533
O: Europa, Mitteleuropa, Deutschland, Schleswig - Holstein
R: Staende -, Bergmanns - Lied
M: 2/4
L: 1/16
K: C
G,2 | C4C4 | C4E,2A,2 | G,4D,2E,2 | C,4z2
A,2 | G,3F,D,3F, | E,4z2
A,2 | G,3F,D,3F, | E,4z2
E,2 | D,4B,4 | B,6B,2 | B,3A,G,2F,2 | E,4z2
G,2 | D3G,G,3G, | A,3G,G,2
G,2 | E,3G,C3G, | E,3G,C2
G,2 | D3G,G,3G, | A,3G,G,2
G,2 | E,3G,C3G, | E,3G,C2
G,2 | E6D2 | C6G,2 | B,4A,4 | D,4z2
A,2 | A,3G,G,3G, | A,4B,4 | C6
G,2 | E6D2 | C6G,2 | B,4A,4 | D,4z2
A,2 | A,3G,G,3G, | A,4B,4 | C6

@@@ Tune index: 5046
